img/orderStage4.svg

<svg fill="none" height="68" viewBox="0 0 68 68" width="68" xmlns="http://www.w3.org/2000/svg"><g fill="#66c4ff"><path d="m28.0234 53.9219c-.733 0-1.3281.595-1.3281 1.3281s.5951 1.3281 1.3281 1.3281c.7331 0 1.3282-.595 1.3282-1.3281s-.5951-1.3281-1.3282-1.3281z"/><path d="m37.3203 68c.7336 0 1.3146-.5945 1.3146-1.3281 0-.0742 0-7.0282.0047-9.7026 2.3471-3.2409 3.7079-7.0178 3.9522-11.0162h9.3379c.7336 0 1.3281-.5945 1.3281-1.3281v-43.29688c0-.733577-.5945-1.32812-1.3281-1.32812h-26.5625c-.7336 0-1.3281.594543-1.3281 1.32812v24.15268l-6.5743 6.5747c-1.7556 1.7557-2.7226 4.0897-2.7226 6.5732v28.0432c0 .7336.5945 1.3281 1.3281 1.3281zm-10.625-65.34375h23.9063v40.64065h-15.9977c-.0545-.5966-.1437-1.1896-.2708-1.7754l.8814-.8809h8.7464c.7336 0 1.3282-.5945 1.3282-1.3281 0-.7325.5955-1.3281 1.3281-1.3281.7336 0 1.3281-.5946 1.3281-1.3282v-27.35932c0-.73359-.5945-1.32813-1.3281-1.32813-.7326 0-1.3281-.59558-1.3281-1.32813 0-.73358-.5946-1.32812-1.3282-1.32812h-10.625c-.7335 0-1.3281.59454-1.3281 1.32812 0 .73255-.5956 1.32813-1.3281 1.32813-.7336 0-1.3281.59454-1.3281 1.32813v22.82452l-2.6563 2.6563c0-1.2809 0-29.94768 0-32.12145zm11.564 27.74845c-1.6933-1.6933-4.2935-1.9392-6.2515-.7393v-19.2682c1.1305-.40047 2.028-1.29799 2.4285-2.42845h8.4243c.4005 1.13046 1.298 2.02798 2.4285 2.42845v25.1587c-1.1305.4005-2.028 1.298-2.4285 2.4285h-4.9898l.4083-.4088c1.961-1.9824 1.9522-5.1994-.0198-7.1709zm-20.8609 8.224c0-1.7738.6906-3.4412 1.9445-4.6951l4.6962-4.6957v8.1965l-1.6031 1.6031c-.5188.5188-.5188 1.3593 0 1.8781s1.3592.5188 1.878 0l8.6328-8.6328c.9468-.9468 2.4877-.9468 3.4345 0 .9416.9416.9458 2.4783.013 3.4209-1.4086 1.4091-3.0495 3.0495-4.4674 4.4679-.3372.3373-.468.8296-.3424 1.2898.2817 1.0303.4249 2.0944.4249 3.1636 0 2.1048-.5562 4.1758-1.6078 5.9895-.3678.634-.1515 1.447.483 1.8148.6329.3668 1.4464.1536 1.8153-.4825 1.0635-1.835 1.711-3.8858 1.9035-5.9947h5.3244c-.2495 3.5636-1.5004 6.9218-3.6612 9.7768-.1738.2298-.2682.5099-.2692.7984-.0037 1.6788-.0047 6.4694-.0047 8.8165h-18.5943z"/><path d="m42.6328 22.9766c0-2.1972-1.7872-3.9844-3.9844-3.9844-2.1971 0-3.9843 1.7872-3.9843 3.9844 0 2.1971 1.7872 3.9843 3.9843 3.9843 2.1972 0 3.9844-1.7872 3.9844-3.9843zm-3.9844 1.3281c-.7325 0-1.3281-.5956-1.3281-1.3281 0-.7326.5956-1.3282 1.3281-1.3282.7326 0 1.3282.5956 1.3282 1.3282 0 .7325-.5956 1.3281-1.3282 1.3281z"/></g></svg>

<svg width="68" height="68" viewBox="0 0 68 68" fill="none" xmlns="http://www.w3.org/2000/svg">
<path d="M28.0234 53.9219C27.2904 53.9219 26.6953 54.5169 26.6953 55.25C26.6953 55.9831 27.2904 56.5781 28.0234 56.5781C28.7565 56.5781 29.3516 55.9831 29.3516 55.25C29.3516 54.5169 28.7565 53.9219 28.0234 53.9219Z" fill="#66C4FF"/>
<path d="M37.3203 68C38.0539 68 38.6349 67.4055 38.6349 66.6719C38.6349 66.5977 38.6349 59.6437 38.6396 56.9693C40.9867 53.7284 42.3475 49.9515 42.5918 45.9531H51.9297C52.6633 45.9531 53.2578 45.3586 53.2578 44.625V1.32812C53.2578 0.594543 52.6633 0 51.9297 0H25.3672C24.6336 0 24.0391 0.594543 24.0391 1.32812V25.4808L17.4648 32.0555C15.7092 33.8112 14.7422 36.1452 14.7422 38.6287V66.6719C14.7422 67.4055 15.3367 68 16.0703 68H37.3203ZM26.6953 2.65625H50.6016V43.2969H34.6039C34.5494 42.7003 34.4602 42.1073 34.3331 41.5215L35.2145 40.6406H43.9609C44.6945 40.6406 45.2891 40.0461 45.2891 39.3125C45.2891 38.58 45.8846 37.9844 46.6172 37.9844C47.3508 37.9844 47.9453 37.3898 47.9453 36.6562V9.29688C47.9453 8.56329 47.3508 7.96875 46.6172 7.96875C45.8846 7.96875 45.2891 7.37317 45.2891 6.64062C45.2891 5.90704 44.6945 5.3125 43.9609 5.3125H33.3359C32.6024 5.3125 32.0078 5.90704 32.0078 6.64062C32.0078 7.37317 31.4122 7.96875 30.6797 7.96875C29.9461 7.96875 29.3516 8.56329 29.3516 9.29688V32.1214L26.6953 34.7777C26.6953 33.4968 26.6953 4.83002 26.6953 2.65625ZM38.2593 30.4047C36.566 28.7114 33.9658 28.4655 32.0078 29.6654V10.3972C33.1383 9.99673 34.0358 9.09921 34.4363 7.96875H42.8606C43.2611 9.09921 44.1586 9.99673 45.2891 10.3972V35.5559C44.1586 35.9564 43.2611 36.8539 42.8606 37.9844H37.8708L38.2791 37.5756C40.2401 35.5932 40.2313 32.3762 38.2593 30.4047ZM17.3984 38.6287C17.3984 36.8549 18.089 35.1875 19.3429 33.9336L24.0391 29.2379V37.4344L22.436 39.0375C21.9172 39.5563 21.9172 40.3968 22.436 40.9156C22.9548 41.4344 23.7952 41.4344 24.314 40.9156L32.9468 32.2828C33.8936 31.336 35.4345 31.336 36.3813 32.2828C37.3229 33.2244 37.3271 34.7611 36.3943 35.7037C34.9857 37.1128 33.3448 38.7532 31.9269 40.1716C31.5897 40.5089 31.4589 41.0012 31.5845 41.4614C31.8662 42.4917 32.0094 43.5558 32.0094 44.625C32.0094 46.7298 31.4532 48.8008 30.4016 50.6145C30.0338 51.2485 30.2501 52.0615 30.8846 52.4293C31.5175 52.7961 32.331 52.5829 32.6999 51.9468C33.7634 50.1118 34.4109 48.061 34.6034 45.9521H39.9278C39.6783 49.5157 38.4274 52.8739 36.2666 55.7289C36.0928 55.9587 35.9984 56.2388 35.9974 56.5273C35.9937 58.2061 35.9927 62.9967 35.9927 65.3438H17.3984V38.6287Z" fill="#66C4FF"/>
<path d="M42.6328 22.9766C42.6328 20.7794 40.8456 18.9922 38.6484 18.9922C36.4513 18.9922 34.6641 20.7794 34.6641 22.9766C34.6641 25.1737 36.4513 26.9609 38.6484 26.9609C40.8456 26.9609 42.6328 25.1737 42.6328 22.9766ZM38.6484 24.3047C37.9159 24.3047 37.3203 23.7091 37.3203 22.9766C37.3203 22.244 37.9159 21.6484 38.6484 21.6484C39.381 21.6484 39.9766 22.244 39.9766 22.9766C39.9766 23.7091 39.381 24.3047 38.6484 24.3047Z" fill="#66C4FF"/>
</svg>
